app/assets/images/vynile.svg

<?xml version="1.0" encoding="UTF-8" standalone="no"?>
<svg width="90px" height="90px" viewBox="0 0 90 90" version="1.1" xmlns="http://www.w3.org/2000/svg" xmlns:xlink="http://www.w3.org/1999/xlink" xmlns:sketch="http://www.bohemiancoding.com/sketch/ns">
    <!-- Generator: Sketch 3.1 (8751) - http://www.bohemiancoding.com/sketch -->
    <title>Oval 1 + plotter</title>
    <desc>Created with Sketch.</desc>
    <defs></defs>
    <g id="Page-1" stroke="none" stroke-width="1" fill="none" fill-rule="evenodd" sketch:type="MSPage">
        <g id="Oval-1-+-plotter" sketch:type="MSLayerGroup">
            <circle id="Oval-1" fill="#000000" sketch:type="MSShapeGroup" cx="45" cy="45" r="45"></circle>
            <g id="plotter" transform="translate(11.000000, 19.000000)" fill="#FFFFFF" sketch:type="MSShapeGroup">
                <g id="Group">
                    <path d="M15.5811685,9.46318841 C15.6675056,8.77034783 15.8531685,7.72110145 16.2405393,6.75173913 L14.3716854,6.75173913 C13.2340225,6.75173913 12.444764,6.4176087 12.0245393,5.75933333 C11.4774831,4.90211594 11.8381124,3.9027971 11.9389663,3.66237681 L13.0865618,0.279594203 L3.74382022,0.279594203 L3.61622472,0.400956522 C3.48480899,0.526927536 0.435505618,3.51413043 0.361393258,9.46242029 L15.5811685,9.46242029 L15.5811685,9.46318841 Z" id="Shape"></path>
                    <path d="M13.3471011,4.26073913 C13.2897978,4.39285507 13.1973483,4.75617391 13.3119551,4.93284058 C13.3555056,4.99889855 13.5595056,5.21627536 14.3716854,5.21627536 L27.6049438,5.21627536 L28.3689888,1.59844928 L33.9854831,1.59844928 L39.7685393,1.59844928 L40.5325843,5.21627536 L53.7582022,5.21627536 C54.5734382,5.21627536 54.7774382,4.99966667 54.8209888,4.93284058 C54.9348315,4.75694203 54.8408539,4.39515942 54.7812584,4.25689855 L53.2218427,-0.348724638 L33.8624719,-0.348724638 L14.9149213,-0.348724638 L13.3471011,4.26073913 L13.3471011,4.26073913 Z" id="Shape"></path>
                    <path d="M56.1909213,3.66314493 C56.2933034,3.90663768 56.6539326,4.90288406 56.1099326,5.75856522 C55.6904719,6.4176087 54.8996854,6.75173913 53.7589663,6.75173913 L51.8969888,6.75173913 C52.2866517,7.72647826 52.4730787,8.78033333 52.5571236,9.46318841 L67.7753708,9.46318841 C67.7004944,3.51413043 64.6519551,0.526927536 64.5197753,0.401724638 L64.3929438,0.280362319 L55.0486742,0.280362319 L56.1909213,3.66314493 L56.1909213,3.66314493 Z" id="Shape"></path>
                    <path d="M67.7822472,21.5955797 L67.7822472,10.9994203 L52.6266517,10.9994203 L52.6266517,11.2106522 C52.1857978,9.88027536 51.4744719,9.37562319 50.9740225,9.18897101 C50.8441348,8.4223913 50.6057528,7.4584058 50.2023371,6.75250725 L39.1404944,6.75250725 C39.0931236,6.75865217 39.0533933,6.76172464 39.031236,6.76172464 L39.0128989,6.76172464 L33.863236,6.76172464 L29.1177528,6.76172464 L29.1024719,6.76172464 C29.0833708,6.76172464 29.0428764,6.75865217 28.9947416,6.75250725 L17.934427,6.75250725 C17.5325393,7.45686957 17.2941573,8.41471014 17.1642697,9.1882029 C16.6638202,9.37485507 15.9517303,9.87797101 15.5101124,11.2068116 L15.5101124,10.9994203 L0.355280899,10.9994203 L0.355280899,21.5955797 L8.24404494,21.5955797 L8.57946067,21.5955797 L8.57946067,46.3788406 L5.37047191,53.1382609 L12.0337079,53.1382609 L13.0109213,51.0182609 L13.0109213,21.5955797 L15.1082247,21.5955797 L15.1082247,35.7004928 C15.1082247,37.6922174 13.6924494,38.9711304 13.6817528,38.9811159 L14.195191,40.3691014 L53.941573,40.3691014 L54.4580674,38.9834203 C54.4435506,38.9703623 53.0270112,37.6922174 53.0270112,35.7012609 L53.0270112,21.5955797 L55.1258427,21.5955797 L55.1258427,51.0182609 L56.1038202,53.1382609 L62.7662921,53.1382609 L59.5573034,46.3788406 L59.5573034,21.5955797 L67.7822472,21.5955797 L67.7822472,21.5955797 Z M15.8157303,38.789087 C16.2649888,38.0294203 16.6806292,36.980942 16.6806292,35.7004928 L16.6806292,21.5955797 L16.6806292,20.7122464 L16.6806292,16.4645652 L16.6806292,14.190942 C16.6806292,11.4341739 17.4630112,10.7029275 17.7120899,10.6560725 L50.371191,10.653 C50.6729888,10.7021594 51.4553708,11.4341739 51.4553708,14.1901739 L51.4553708,16.4637971 L51.4553708,20.7114783 L51.4553708,21.5948116 L51.4553708,35.6997246 C51.4553708,36.9801739 51.8710112,38.0278841 52.3210337,38.7883188 L15.8157303,38.7883188 L15.8157303,38.789087 Z" id="Shape"></path>
                </g>
            </g>
        </g>
    </g>
</svg>

<?xml version="1.0" encoding="UTF-8" standalone="no"?>
<svg
   xmlns:sketch="http://www.bohemiancoding.com/sketch/ns"
   xmlns:dc="http://purl.org/dc/elements/1.1/"
   xmlns:cc="http://creativecommons.org/ns#"
   xmlns:rdf="http://www.w3.org/1999/02/22-rdf-syntax-ns#"
   xmlns:svg="http://www.w3.org/2000/svg"
   xmlns="http://www.w3.org/2000/svg"
   xmlns:sodipodi="http://sodipodi.sourceforge.net/DTD/sodipodi-0.dtd"
   xmlns:inkscape="http://www.inkscape.org/namespaces/inkscape"
   width="90px"
   height="90px"
   viewBox="0 0 90 90"
   version="1.1"
   id="svg3197"
   inkscape:version="0.48.4 r9939"
   sodipodi:docname="vynile.svg">
  <metadata
     id="metadata3219">
    <rdf:RDF>
      <cc:Work
         rdf:about="">
        <dc:format>image/svg+xml</dc:format>
        <dc:type
           rdf:resource="http://purl.org/dc/dcmitype/StillImage" />
      </cc:Work>
    </rdf:RDF>
  </metadata>
  <sodipodi:namedview
     pagecolor="#ffffff"
     bordercolor="#666666"
     borderopacity="1"
     objecttolerance="10"
     gridtolerance="10"
     guidetolerance="10"
     inkscape:pageopacity="0"
     inkscape:pageshadow="2"
     inkscape:window-width="1301"
     inkscape:window-height="744"
     id="namedview3217"
     showgrid="false"
     inkscape:zoom="2.6222222"
     inkscape:cx="45"
     inkscape:cy="45"
     inkscape:window-x="65"
     inkscape:window-y="24"
     inkscape:window-maximized="1"
     inkscape:current-layer="Oval-1-+-plotter" />
  <!-- Generator: Sketch 3.1 (8751) - http://www.bohemiancoding.com/sketch -->
  <title
     id="title3199">Oval 1 + plotter</title>
  <desc
     id="desc3201">Created with Sketch.</desc>
  <defs
     id="defs3203" />
  <g
     id="Page-1"
     stroke="none"
     stroke-width="1"
     fill="none"
     fill-rule="evenodd"
     sketch:type="MSPage">
    <g
       id="Oval-1-+-plotter"
       sketch:type="MSLayerGroup">
      <g
         id="plotter"
         transform="translate(11,20.144068)"
         sketch:type="MSShapeGroup"
         style="fill:#808080">
        <g
           id="Group"
           style="fill:#808080">
          <path
             d="m 15.581169,9.4631884 c 0.08634,-0.6928406 0.272,-1.742087 0.65937,-2.7114493 l -1.868854,0 c -1.137662,0 -1.926921,-0.3341304 -2.347146,-0.9924058 -0.547056,-0.8572174 -0.186427,-1.8565362 -0.08557,-2.0969565 l 1.147596,-3.3827826 -9.3427418,0 -0.1275955,0.12136232 C 3.484809,0.52692754 0.43550562,3.5141304 0.36139326,9.4624203 l 15.21977574,0 0,7.681e-4 z"
             id="Shape"
             style="fill:#808080"
             inkscape:connector-curvature="0" />
          <path
             d="m 13.347101,4.2607391 c -0.0573,0.132116 -0.149753,0.4954348 -0.03515,0.6721015 0.04355,0.066058 0.247551,0.2834348 1.05973,0.2834348 l 13.233259,0 0.764045,-3.6178261 5.616494,0 5.783056,0 0.764045,3.6178261 13.225618,0 c 0.815236,0 1.019236,-0.2166087 1.062787,-0.2834348 0.113843,-0.1758986 0.01987,-0.5376812 -0.03973,-0.6759421 l -1.559415,-4.60562314 -19.359371,0 -18.947551,0 -1.56782,4.60946374 0,0 z"
             id="path3211"
             style="fill:#808080"
             inkscape:connector-curvature="0" />
          <path
             d="m 56.190921,3.6631449 c 0.102382,0.2434928 0.463012,1.2397392 -0.08099,2.0954203 -0.419461,0.6590435 -1.210248,0.9931739 -2.350967,0.9931739 l -1.861977,0 c 0.389663,0.9747392 0.57609,2.0285942 0.660135,2.7114493 l 15.218247,0 C 67.700494,3.5141304 64.651955,0.52692754 64.519775,0.40172464 l -0.126831,-0.12136232 -9.34427,0 1.142247,3.38278258 0,0 z"
             id="path3213"
             style="fill:#808080"
             inkscape:connector-curvature="0" />
          <path
             d="m 67.782247,21.59558 0,-10.59616 -15.155595,0 0,0.211232 C 52.185798,9.8802754 51.474472,9.3756232 50.974022,9.188971 50.844135,8.4223913 50.605753,7.4584058 50.202337,6.7525072 l -11.061843,0 c -0.04737,0.00615 -0.0871,0.00922 -0.109258,0.00922 l -0.01834,0 -5.149663,0 -4.745483,0 -0.01528,0 c -0.0191,0 -0.0596,-0.00307 -0.10773,-0.00922 l -11.060315,0 C 17.532539,7.4568696 17.294157,8.4147101 17.16427,9.1882029 16.66382,9.3748551 15.95173,9.877971 15.510112,11.206812 l 0,-0.207392 -15.1548311,0 0,10.59616 7.888764,0 0.3354158,0 0,24.783261 -3.2089888,6.75942 6.6632361,0 0.977213,-2.12 0,-29.422681 2.097304,0 0,14.104913 c 0,1.991724 -1.415776,3.270637 -1.426472,3.280623 l 0.513438,1.387985 39.746382,0 0.516494,-1.385681 c -0.01452,-0.01306 -1.431056,-1.291203 -1.431056,-3.282159 l 0,-14.105681 2.098832,0 0,29.422681 0.977977,2.12 6.662472,0 -3.208989,-6.75942 0,-24.783261 8.224944,0 0,0 z M 15.81573,38.789087 c 0.449259,-0.759667 0.864899,-1.808145 0.864899,-3.088594 l 0,-14.104913 0,-0.883334 0,-4.247681 0,-2.273623 c 0,-2.756768 0.782382,-3.488015 1.031461,-3.534869 L 50.371191,10.653 c 0.301798,0.04916 1.08418,0.781174 1.08418,3.537174 l 0,2.273623 0,4.247681 0,0.883334 0,14.104913 c 0,1.280449 0.41564,2.328159 0.865663,3.088594 l -36.505304,0 0,7.68e-4 z"
             id="path3215"
             style="fill:#808080"
             inkscape:connector-curvature="0" />
        </g>
      </g>
    </g>
  </g>
</svg>
